X:1
T:Juneau, 87.87 D
T:Juneau, 87.87 D
T:George Coles Stebbins, 1879
T:Public Domain Courtesy of the Cyber Hymnal™
C:George Coles Stebbins, 1879
Z:Public Domain
Z:Courtesy of the Cyber Hymnal™
%%score ( 1 2 ) ( 3 4 )
L:1/8
Q:1/4=110
M:4/4
K:C
V:1 treble 
V:2 treble 
V:3 bass 
V:4 bass 
V:1
 [Ec]3 [Ec] [FB]2 [FA]2 | [EG]3 [FA] [EG]2 [CE]2 | [CA]3 [CA] [CG]2 [Ec]2 | [Gc]2 [FB]2 [Ec]4 | %4
 [Ec]3 [Ec] [FB]2 [FA]2 | [EG]3 [FA] [EG]2 [CE]2 | [CA]3 [CA] [CG]2 [Ec]2 | [GB]2 [^FA]2 G4 | %8
 [Fd]3 [Ec] [FB]2 [DG]2 | [Ge]3 [Fd] [Ec]2 [EG]2 | [FA]3 [GB] [Gc]2 [Ge]2 | [Gd]2 [^FA]2 [Gd]4 | %12
 [Ge]3 [Fd] [Ec]2 [GB]2 | [Fd]3 [Ac] [GB]2 [FA]2 | [EG]3 [Ac] [Ac]2 [Ad]2 | [Gc]2 [FB]2 [Ec]4 |] %16
V:2
 x8 | x8 | x8 | x8 | x8 | x8 | x8 | x4 G4 | x8 | x8 | x8 | x8 | x8 | x8 | x8 | x8 |] %16
V:3
 [C,G,]3 [C,G,] [C,G,]2 [C,C]2 | [C,C]3 [C,C] [C,C]2 [C,G,]2 | F,3 [F,A,] [E,C]2 [C,G,]2 | %3
 [G,E]2 [G,D]2 [C,C]4 | [C,G,]3 [C,G,] [C,G,]2 [C,C]2 | [C,C]3 [C,C] [C,C]2 [C,G,]2 | %6
 F,3 [F,A,] [E,C]2 [C,A,]2 | [D,D]2 [D,C]2 [G,,G,B,]4 | [G,B,]3 [G,C] [G,D]2 [G,B,]2 | %9
 [C,C]3 [C,G,] [C,G,]2 [C,C]2 | [F,C]3 [F,D] [E,C]2 [C,C]2 | [D,B,]2 [D,C]2 [G,,B,]4 | %12
 [C,C]3 [C,G,] [C,G,]2 [E,C]2 | [F,A,]3 [F,C] [F,C]2 [F,C]2 | [G,C]3 [A,E] [A,E]2 [F,F]2 | %15
 [G,E]2 [G,D]2 [C,C]4 |] %16
V:4
 x8 | x8 | F,3 x5 | x8 | x8 | x8 | F,3 x5 | x8 | x8 | x8 | x8 | x8 | x8 | x8 | x8 | x8 |] %16

